Images/RediTechLogoFull.svg

<?xml version="1.0" encoding="UTF-8" standalone="no"?><!DOCTYPE svg PUBLIC "-//W3C//DTD SVG 1.1//EN" "http://www.w3.org/Graphics/SVG/1.1/DTD/svg11.dtd"><svg width="100%" height="100%" viewBox="0 0 352 71" version="1.1" xmlns="http://www.w3.org/2000/svg" xmlns:xlink="http://www.w3.org/1999/xlink" xml:space="preserve" xmlns:serif="http://www.serif.com/" style="fill-rule:evenodd;clip-rule:evenodd;stroke-linecap:square;stroke-miterlimit:1.5;"><g id="Logo-with-Name" serif:id="Logo with Name"><g id="Logo"><g id="Mobile"><path d="M60.545,49.376c0,-1.079 -0.875,-1.954 -1.954,-1.954l-3.909,0c-1.078,0 -1.954,0.875 -1.954,1.954l0,15.049c0,1.078 0.876,1.954 1.954,1.954l3.909,0c1.079,0 1.954,-0.876 1.954,-1.954l0,-15.049Z"/><path d="M69.774,38.347c0,-1.079 -0.876,-1.955 -1.954,-1.955l-3.909,0c-1.079,0 -1.954,0.876 -1.954,1.955l0,26.078c0,1.078 0.875,1.954 1.954,1.954l3.909,0c1.078,0 1.954,-0.876 1.954,-1.954l0,-26.078Z"/><path d="M78.974,25.624c0,-1.079 -0.876,-1.954 -1.954,-1.954l-3.909,0c-1.079,0 -1.954,0.875 -1.954,1.954l0,38.801c0,1.078 0.875,1.954 1.954,1.954l3.909,0c1.078,0 1.954,-0.876 1.954,-1.954l0,-38.801Z"/><path d="M88.361,15.24c0,-1.079 -0.876,-1.954 -1.955,-1.954l-3.908,0c-1.079,0 -1.955,0.875 -1.955,1.954l0,49.185c0,1.078 0.876,1.954 1.955,1.954l3.908,0c1.079,0 1.955,-0.876 1.955,-1.954l0,-49.185Z" style="fill:#f7051b;"/></g><g id="WiFi"><ellipse cx="38.016" cy="60.999" rx="2.142" ry="2.295" style="fill:#f7051a;stroke:#f7051b;stroke-width:7.9px;"/><path d="M5,17.346c22.33,-16.816 43.969,-16.097 66.033,-0.018" style="fill:none;stroke:#0b0808;stroke-width:10px;stroke-linecap:round;stroke-linejoin:round;"/><path d="M13.492,28.378c16.588,-13.22 32.661,-12.656 49.049,-0.018" style="fill:none;stroke:#0b0808;stroke-width:10px;stroke-linecap:round;stroke-linejoin:round;"/><path d="M22.233,38.724c10.675,-8.139 21.019,-7.791 31.566,-0.009" style="fill:none;stroke:#0b0808;stroke-width:10px;stroke-linecap:round;stroke-linejoin:round;"/><path d="M30.815,49.448c4.871,-4.052 9.591,-3.879 14.403,-0.006" style="fill:none;stroke:#0b0808;stroke-width:10px;stroke-linecap:round;stroke-linejoin:round;"/></g></g><g transform="matrix(0.24,0,0,0.24,-85.0284,-32.2379)"><clipPath id="_clip1"><rect x="734.154" y="185.027" width="1082.77" height="228.662"/></clipPath><g clip-path="url(#_clip1)"><g transform="matrix(300,0,0,300,661.421,410.759)"><path d="M0.455,0l-0.181,-0.218c-0.026,-0.028 -0.039,-0.054 -0.039,-0.08c0,-0.027 0.01,-0.049 0.029,-0.068c0.019,-0.019 0.041,-0.029 0.068,-0.029l0.052,0c0.027,0 0.046,-0.005 0.056,-0.015c0.01,-0.01 0.015,-0.034 0.015,-0.071c0,-0.037 -0.005,-0.061 -0.015,-0.071c-0.01,-0.01 -0.029,-0.015 -0.056,-0.015l-0.185,0l0,0.567l-0.16,0l0,-0.571c0,-0.043 0.015,-0.08 0.045,-0.111c0.031,-0.03 0.068,-0.045 0.111,-0.045l0.189,0c0.071,0 0.127,0.021 0.169,0.062c0.041,0.041 0.062,0.098 0.062,0.169c0,0.072 -0.021,0.128 -0.062,0.169c-0.031,0.031 -0.074,0.05 -0.13,0.059l0.222,0.268l-0.19,0Z" style="fill:#f7051b;fill-rule:nonzero;"/></g><g transform="matrix(300,0,0,300,840.66,410.759)"><path d="M0.396,-0.359c-0.018,-0.024 -0.041,-0.037 -0.07,-0.041c-0.027,-0.004 -0.052,0.001 -0.076,0.014c-0.02,0.01 -0.035,0.026 -0.046,0.048c-0.011,0.02 -0.017,0.042 -0.017,0.066c0,0.032 0.009,0.059 0.028,0.081c0.021,0.024 0.051,0.037 0.089,0.037l0.202,0l0,0.154l-0.202,0c-0.094,0 -0.167,-0.033 -0.218,-0.099c-0.037,-0.048 -0.056,-0.107 -0.056,-0.175c0,-0.058 0.014,-0.109 0.041,-0.153c0.029,-0.047 0.069,-0.08 0.122,-0.101c0.034,-0.013 0.071,-0.019 0.111,-0.019c0.054,0 0.106,0.016 0.154,0.049c0.043,0.029 0.074,0.065 0.094,0.106c0.015,0.032 0.02,0.06 0.013,0.083c-0.006,0.026 -0.024,0.044 -0.055,0.052l-0.187,0.053c-0.006,0.003 -0.012,0.004 -0.019,0.004c-0.019,0 -0.034,-0.007 -0.047,-0.019c-0.012,-0.013 -0.018,-0.028 -0.018,-0.046c0,-0.015 0.004,-0.029 0.014,-0.041c0.009,-0.011 0.021,-0.019 0.035,-0.023l0.108,-0.03Z" style="fill:#f7051b;fill-rule:nonzero;"/></g><g transform="matrix(300,0,0,300,1001.88,410.759)"><path d="M0.567,-0.727l-0.16,0l0,0.46c0,0.042 -0.009,0.072 -0.028,0.09c-0.018,0.018 -0.045,0.027 -0.081,0.027c-0.035,0 -0.062,-0.009 -0.081,-0.027c-0.018,-0.019 -0.028,-0.049 -0.028,-0.092c0,-0.042 0.01,-0.073 0.028,-0.092c0.019,-0.018 0.046,-0.027 0.081,-0.027c0.024,0 0.044,0.003 0.062,0.009l0,-0.165c-0.02,-0.003 -0.041,-0.004 -0.062,-0.004c-0.08,0 -0.144,0.025 -0.194,0.074c-0.05,0.05 -0.075,0.118 -0.075,0.205c0,0.087 0.025,0.155 0.075,0.205c0.05,0.049 0.114,0.074 0.194,0.074c0.08,0 0.145,-0.025 0.194,-0.074c0.05,-0.049 0.075,-0.118 0.075,-0.205l0,-0.458Z" style="fill:#f7051b;fill-rule:nonzero;"/></g><g transform="matrix(300,0,0,300,1168.81,410.759)"><path d="M0.134,-0.752c0.025,0 0.046,0.008 0.064,0.026c0.017,0.018 0.026,0.039 0.026,0.064c0,0.025 -0.009,0.046 -0.026,0.063c-0.018,0.018 -0.039,0.027 -0.064,0.027c-0.025,0 -0.046,-0.009 -0.064,-0.027c-0.017,-0.017 -0.026,-0.038 -0.026,-0.063c0,-0.025 0.009,-0.046 0.026,-0.064c0.018,-0.018 0.039,-0.026 0.064,-0.026Zm0.08,0.752l-0.16,0l0,-0.523l0.16,0l0,0.523Z" style="fill:#0b0808;fill-rule:nonzero;"/></g><g transform="matrix(300,0,0,300,1234.23,410.759)"><path d="M0.572,-0.727l0,0.159l-0.201,0l0,0.568l-0.16,0l0,-0.568l-0.201,0l0,-0.159l0.562,0Z" style="fill:#0b0808;fill-rule:nonzero;"/></g><g transform="matrix(300,0,0,300,1359.57,410.759)"><path d="M0.396,-0.359c-0.018,-0.024 -0.041,-0.037 -0.07,-0.041c-0.027,-0.004 -0.052,0.001 -0.076,0.014c-0.02,0.01 -0.035,0.026 -0.046,0.048c-0.011,0.02 -0.017,0.042 -0.017,0.066c0,0.032 0.009,0.059 0.028,0.081c0.021,0.024 0.051,0.037 0.089,0.037l0.202,0l0,0.154l-0.202,0c-0.094,0 -0.167,-0.033 -0.218,-0.099c-0.037,-0.048 -0.056,-0.107 -0.056,-0.175c0,-0.058 0.014,-0.109 0.041,-0.153c0.029,-0.047 0.069,-0.08 0.122,-0.101c0.034,-0.013 0.071,-0.019 0.111,-0.019c0.054,0 0.106,0.016 0.154,0.049c0.043,0.029 0.074,0.065 0.094,0.106c0.015,0.032 0.02,0.06 0.013,0.083c-0.006,0.026 -0.024,0.044 -0.055,0.052l-0.187,0.053c-0.006,0.003 -0.012,0.004 -0.019,0.004c-0.019,0 -0.034,-0.007 -0.047,-0.019c-0.012,-0.013 -0.018,-0.028 -0.018,-0.046c0,-0.015 0.004,-0.029 0.014,-0.041c0.009,-0.011 0.021,-0.019 0.035,-0.023l0.108,-0.03Z" style="fill:#0b0808;fill-rule:nonzero;"/></g><g transform="matrix(300,0,0,300,1520.79,410.759)"><path d="M0.436,-0.547l0,0.159l-0.044,0c-0.077,0 -0.123,0.002 -0.14,0.008c-0.042,0.012 -0.063,0.049 -0.063,0.111c0,0.061 0.021,0.099 0.062,0.112c0.017,0.005 0.064,0.007 0.141,0.007l0.044,0l0,0.159l-0.044,0.001c-0.12,0 -0.205,-0.016 -0.254,-0.046c-0.036,-0.022 -0.063,-0.052 -0.081,-0.089c-0.019,-0.038 -0.028,-0.086 -0.028,-0.144c0,-0.063 0.011,-0.114 0.033,-0.154c0.021,-0.039 0.053,-0.068 0.094,-0.089c0.048,-0.024 0.126,-0.036 0.236,-0.035l0.044,0Z" style="fill:#0b0808;fill-rule:nonzero;"/></g><g transform="matrix(300,0,0,300,1648.32,410.759)"><path d="M0.199,0l-0.16,0l0,-0.727l0.16,0l0,0.23c0.038,-0.029 0.082,-0.043 0.132,-0.043c0.062,0 0.115,0.023 0.159,0.068c0.048,0.05 0.072,0.118 0.072,0.203l0,0.269l-0.16,0l0,-0.269c0,-0.038 -0.009,-0.066 -0.026,-0.084c-0.016,-0.017 -0.041,-0.025 -0.076,-0.025c-0.034,0 -0.059,0.008 -0.075,0.025c-0.017,0.018 -0.026,0.046 -0.026,0.084l0,0.269Z" style="fill:#0b0808;fill-rule:nonzero;"/></g></g></g><ellipse cx="205.117" cy="18.684" rx="2.352" ry="2.424" style="fill:#f7051b;stroke:#f7051b;stroke-width:8.51px;"/></g></svg>

<?xml version="1.0" encoding="UTF-8" standalone="no"?>
<!DOCTYPE svg PUBLIC "-//W3C//DTD SVG 1.1//EN" "http://www.w3.org/Graphics/SVG/1.1/DTD/svg11.dtd">
<svg width="100%" height="100%" viewBox="0 0 1463 294" version="1.1" xmlns="http://www.w3.org/2000/svg" xmlns:xlink="http://www.w3.org/1999/xlink" xml:space="preserve" xmlns:serif="http://www.serif.com/" style="fill-rule:evenodd;clip-rule:evenodd;stroke-linecap:square;stroke-miterlimit:1.5;">
    <g transform="matrix(1,0,0,1,-204.317,-179.873)">
        <g id="Logo-with-Name" serif:id="Logo with Name">
            <g id="Logo" transform="matrix(0.923956,0,0,0.980053,64.3261,46.8815)">
                <g id="Mobile" transform="matrix(1.11717,0,0,1.09777,-110.926,-583.685)">
                    <g transform="matrix(0.750907,0,0,1.08957,-227.436,421.674)">
                        <path d="M941.195,389.939C941.195,386.105 936.488,382.992 930.689,382.992L909.678,382.992C903.879,382.992 899.172,386.105 899.172,389.939L899.172,443.428C899.172,447.262 903.879,450.375 909.678,450.375L930.689,450.375C936.488,450.375 941.195,447.262 941.195,443.428L941.195,389.939Z"/>
                    </g>
                    <g transform="matrix(0.750907,0,0,1.72348,-190.184,136.178)">
                        <path d="M941.195,387.384C941.195,384.96 936.488,382.992 930.689,382.992L909.678,382.992C903.879,382.992 899.172,384.96 899.172,387.384L899.172,445.983C899.172,448.407 903.879,450.375 909.678,450.375L930.689,450.375C936.488,450.375 941.195,448.407 941.195,445.983L941.195,387.384Z"/>
                    </g>
                    <g transform="matrix(0.750907,0,0,2.45473,-153.046,-193.157)">
                        <path d="M941.195,386.076C941.195,384.374 936.488,382.992 930.689,382.992L909.678,382.992C903.879,382.992 899.172,384.374 899.172,386.076L899.172,447.292C899.172,448.993 903.879,450.375 909.678,450.375L930.689,450.375C936.488,450.375 941.195,448.993 941.195,447.292L941.195,386.076Z"/>
                    </g>
                    <g transform="matrix(0.750907,0,0,3.05155,-115.157,-461.951)">
                        <path d="M941.195,385.473C941.195,384.104 936.488,382.992 930.689,382.992L909.678,382.992C903.879,382.992 899.172,384.104 899.172,385.473L899.172,447.895C899.172,449.264 903.879,450.375 909.678,450.375L930.689,450.375C936.488,450.375 941.195,449.264 941.195,447.895L941.195,385.473Z" style="fill:rgb(247,5,26);"/>
                    </g>
                </g>
                <g id="WiFi" transform="matrix(1,0,0,0.923828,-49.463,-430.462)">
                    <g transform="matrix(0.718366,0,0,0.721146,77.132,463.734)">
                        <ellipse cx="411.047" cy="596.03" rx="13.448" ry="14.643" style="fill:rgb(247,5,26);stroke:rgb(247,5,27);stroke-width:50px;"/>
                    </g>
                    <g transform="matrix(0.999999,0.00138166,-0.00165833,1.20025,0.390968,-59.7193)">
                        <path d="M224.172,626.602C324.766,562.01 422.351,564.655 521.953,626.19" style="fill:none;stroke:rgb(11,8,8);stroke-width:41.31px;stroke-linecap:round;stroke-linejoin:round;"/>
                    </g>
                    <g transform="matrix(0.742794,0.00102629,-0.00130365,0.943544,96.1222,151.983)">
                        <path d="M224.172,626.602C324.766,562.01 422.351,564.655 521.953,626.19" style="fill:none;stroke:rgb(11,8,8);stroke-width:53.77px;stroke-linecap:round;stroke-linejoin:round;"/>
                    </g>
                    <g transform="matrix(0.478035,0.00066048,-0.0008026,0.580897,194.58,426.912)">
                        <path d="M224.172,626.602C324.766,562.01 422.351,564.655 521.953,626.19" style="fill:none;stroke:rgb(11,8,8);stroke-width:85.8px;stroke-linecap:round;stroke-linejoin:round;"/>
                    </g>
                    <g transform="matrix(0.218122,0.00030137,-0.000399498,0.289144,291.291,659.156)">
                        <path d="M224.172,626.602C324.766,562.01 422.351,564.655 521.953,626.19" style="fill:none;stroke:rgb(11,8,8);stroke-width:178.36px;stroke-linecap:round;stroke-linejoin:round;"/>
                    </g>
                </g>
            </g>
            <g transform="matrix(1,0,0,1,-149.968,45.5484)">
                <clipPath id="_clip1">
                    <rect x="734.154" y="185.027" width="1082.77" height="228.662"/>
                </clipPath>
                <g clip-path="url(#_clip1)">
                    <g transform="matrix(300,0,0,300,661.421,410.759)">
                        <path d="M0.455,0L0.274,-0.218C0.248,-0.246 0.235,-0.272 0.235,-0.298C0.235,-0.325 0.245,-0.347 0.264,-0.366C0.283,-0.385 0.305,-0.395 0.332,-0.395L0.384,-0.395C0.411,-0.395 0.43,-0.4 0.44,-0.41C0.45,-0.42 0.455,-0.444 0.455,-0.481C0.455,-0.518 0.45,-0.542 0.44,-0.552C0.43,-0.562 0.411,-0.567 0.384,-0.567L0.199,-0.567L0.199,0L0.039,0L0.039,-0.571C0.039,-0.614 0.054,-0.651 0.084,-0.682C0.115,-0.712 0.152,-0.727 0.195,-0.727L0.384,-0.727C0.455,-0.727 0.511,-0.706 0.553,-0.665C0.594,-0.624 0.615,-0.567 0.615,-0.496C0.615,-0.424 0.594,-0.368 0.553,-0.327C0.522,-0.296 0.479,-0.277 0.423,-0.268L0.645,0L0.455,0Z" style="fill:rgb(247,5,26);fill-rule:nonzero;"/>
                    </g>
                    <g transform="matrix(300,0,0,300,840.66,410.759)">
                        <path d="M0.396,-0.359C0.378,-0.383 0.355,-0.396 0.326,-0.4C0.299,-0.404 0.274,-0.399 0.25,-0.386C0.23,-0.376 0.215,-0.36 0.204,-0.338C0.193,-0.318 0.187,-0.296 0.187,-0.272C0.187,-0.24 0.196,-0.213 0.215,-0.191C0.236,-0.167 0.266,-0.154 0.304,-0.154L0.506,-0.154L0.506,0L0.304,0C0.21,0 0.137,-0.033 0.086,-0.099C0.049,-0.147 0.03,-0.206 0.03,-0.274C0.03,-0.332 0.044,-0.383 0.071,-0.427C0.1,-0.474 0.14,-0.507 0.193,-0.528C0.227,-0.541 0.264,-0.547 0.304,-0.547C0.358,-0.547 0.41,-0.531 0.458,-0.498C0.501,-0.469 0.532,-0.433 0.552,-0.392C0.567,-0.36 0.572,-0.332 0.565,-0.309C0.559,-0.283 0.541,-0.265 0.51,-0.257L0.323,-0.204C0.317,-0.201 0.311,-0.2 0.304,-0.2C0.285,-0.2 0.27,-0.207 0.257,-0.219C0.245,-0.232 0.239,-0.247 0.239,-0.265C0.239,-0.28 0.243,-0.294 0.253,-0.306C0.262,-0.317 0.274,-0.325 0.288,-0.329L0.396,-0.359Z" style="fill:rgb(247,5,26);fill-rule:nonzero;"/>
                    </g>
                    <g transform="matrix(300,0,0,300,1001.88,410.759)">
                        <path d="M0.567,-0.727L0.407,-0.727L0.407,-0.267C0.407,-0.225 0.398,-0.195 0.379,-0.177C0.361,-0.159 0.334,-0.15 0.298,-0.15C0.263,-0.15 0.236,-0.159 0.217,-0.177C0.199,-0.196 0.189,-0.226 0.189,-0.269C0.189,-0.311 0.199,-0.342 0.217,-0.361C0.236,-0.379 0.263,-0.388 0.298,-0.388C0.322,-0.388 0.342,-0.385 0.36,-0.379L0.36,-0.544C0.34,-0.547 0.319,-0.548 0.298,-0.548C0.218,-0.548 0.154,-0.523 0.104,-0.474C0.054,-0.424 0.029,-0.356 0.029,-0.269C0.029,-0.182 0.054,-0.114 0.104,-0.064C0.154,-0.015 0.218,0.01 0.298,0.01C0.378,0.01 0.443,-0.015 0.492,-0.064C0.542,-0.113 0.567,-0.182 0.567,-0.269L0.567,-0.727Z" style="fill:rgb(247,5,26);fill-rule:nonzero;"/>
                    </g>
                    <g transform="matrix(300,0,0,300,1168.81,410.759)">
                        <path d="M0.134,-0.752C0.159,-0.752 0.18,-0.744 0.198,-0.726C0.215,-0.708 0.224,-0.687 0.224,-0.662C0.224,-0.637 0.215,-0.616 0.198,-0.599C0.18,-0.581 0.159,-0.572 0.134,-0.572C0.109,-0.572 0.088,-0.581 0.07,-0.599C0.053,-0.616 0.044,-0.637 0.044,-0.662C0.044,-0.687 0.053,-0.708 0.07,-0.726C0.088,-0.744 0.109,-0.752 0.134,-0.752ZM0.214,0L0.054,0L0.054,-0.523L0.214,-0.523L0.214,0Z" style="fill:rgb(11,8,8);fill-rule:nonzero;"/>
                    </g>
                    <g transform="matrix(300,0,0,300,1234.23,410.759)">
                        <path d="M0.572,-0.727L0.572,-0.568L0.371,-0.568L0.371,0L0.211,0L0.211,-0.568L0.01,-0.568L0.01,-0.727L0.572,-0.727Z" style="fill:rgb(11,8,8);fill-rule:nonzero;"/>
                    </g>
                    <g transform="matrix(300,0,0,300,1359.57,410.759)">
                        <path d="M0.396,-0.359C0.378,-0.383 0.355,-0.396 0.326,-0.4C0.299,-0.404 0.274,-0.399 0.25,-0.386C0.23,-0.376 0.215,-0.36 0.204,-0.338C0.193,-0.318 0.187,-0.296 0.187,-0.272C0.187,-0.24 0.196,-0.213 0.215,-0.191C0.236,-0.167 0.266,-0.154 0.304,-0.154L0.506,-0.154L0.506,0L0.304,0C0.21,0 0.137,-0.033 0.086,-0.099C0.049,-0.147 0.03,-0.206 0.03,-0.274C0.03,-0.332 0.044,-0.383 0.071,-0.427C0.1,-0.474 0.14,-0.507 0.193,-0.528C0.227,-0.541 0.264,-0.547 0.304,-0.547C0.358,-0.547 0.41,-0.531 0.458,-0.498C0.501,-0.469 0.532,-0.433 0.552,-0.392C0.567,-0.36 0.572,-0.332 0.565,-0.309C0.559,-0.283 0.541,-0.265 0.51,-0.257L0.323,-0.204C0.317,-0.201 0.311,-0.2 0.304,-0.2C0.285,-0.2 0.27,-0.207 0.257,-0.219C0.245,-0.232 0.239,-0.247 0.239,-0.265C0.239,-0.28 0.243,-0.294 0.253,-0.306C0.262,-0.317 0.274,-0.325 0.288,-0.329L0.396,-0.359Z" style="fill:rgb(11,8,8);fill-rule:nonzero;"/>
                    </g>
                    <g transform="matrix(300,0,0,300,1520.79,410.759)">
                        <path d="M0.436,-0.547L0.436,-0.388L0.392,-0.388C0.315,-0.388 0.269,-0.386 0.252,-0.38C0.21,-0.368 0.189,-0.331 0.189,-0.269C0.189,-0.208 0.21,-0.17 0.251,-0.157C0.268,-0.152 0.315,-0.15 0.392,-0.15L0.436,-0.15L0.436,0.009L0.392,0.01C0.272,0.01 0.187,-0.006 0.138,-0.036C0.102,-0.058 0.075,-0.088 0.057,-0.125C0.038,-0.163 0.029,-0.211 0.029,-0.269C0.029,-0.332 0.04,-0.383 0.062,-0.423C0.083,-0.462 0.115,-0.491 0.156,-0.512C0.204,-0.536 0.282,-0.548 0.392,-0.547L0.436,-0.547Z" style="fill:rgb(11,8,8);fill-rule:nonzero;"/>
                    </g>
                    <g transform="matrix(300,0,0,300,1648.32,410.759)">
                        <path d="M0.199,0L0.039,0L0.039,-0.727L0.199,-0.727L0.199,-0.497C0.237,-0.526 0.281,-0.54 0.331,-0.54C0.393,-0.54 0.446,-0.517 0.49,-0.472C0.538,-0.422 0.562,-0.354 0.562,-0.269L0.562,0L0.402,0L0.402,-0.269C0.402,-0.307 0.393,-0.335 0.376,-0.353C0.36,-0.37 0.335,-0.378 0.3,-0.378C0.266,-0.378 0.241,-0.37 0.225,-0.353C0.208,-0.335 0.199,-0.307 0.199,-0.269L0.199,0Z" style="fill:rgb(11,8,8);fill-rule:nonzero;"/>
                    </g>
                </g>
            </g>
            <g transform="matrix(0.73815,0,0,0.734597,754.223,-178.118)">
                <ellipse cx="411.047" cy="596.03" rx="13.448" ry="14.643" style="fill:rgb(247,5,26);stroke:rgb(247,5,27);stroke-width:50px;"/>
            </g>
        </g>
    </g>
</svg>
